X:16
T:Pull Down the Blind
R:waltz
D:De Danann: Ballroom
Z:id:hn-waltz-16
M:3/4
L:1/8
K:D
D2 | D2F3G | A4B2 | A2d3e | f4ef | a2g2f2 | e2^d2e2 | f2d2B2 | A2F2E2 | 
D2F3G | A4B2 | A2d3e | f4ef | a2g2f2 | e2d2B2 | A2f2e2 | d4 ||
de | f2d3f | e2c3e | d2c2B2 | A2F2A2 | B3ABd | c3Bcd | e2d2B2 | A3FAd |
f2d3f | e2c3e | d2c2B2 | A2F2A2 | B3ABd | c3dcB | A2f2e2 | d4 ||

